findly-builder/apps/searchassist/src/assets/icons/pagination/right-double.svg

<svg width="16" height="16" viewBox="0 0 16 16" fill="none" xmlns="http://www.w3.org/2000/svg">
<path fill-rule="evenodd" clip-rule="evenodd" d="M8.14949 7.63563C8.33837 7.82503 8.34948 8.12519 8.18282 8.32762L8.14949 8.36437L3.87727 12.8491C3.67658 13.0503 3.3512 13.0503 3.15052 12.8491C2.96163 12.6597 2.95052 12.3595 3.11718 12.1571L3.15052 12.1203L7.05928 8L3.15052 3.87967C2.96163 3.69027 2.95052 3.39012 3.11718 3.18769L3.15052 3.15093C3.3394 2.96153 3.63873 2.95039 3.84061 3.1175L3.87727 3.15093L8.14949 7.63563Z" fill="#202124"/>
<path fill-rule="evenodd" clip-rule="evenodd" d="M12.4996 7.63563C12.6885 7.82503 12.6996 8.12519 12.5329 8.32762L12.4996 8.36437L8.22736 12.8491C8.02668 13.0503 7.7013 13.0503 7.50061 12.8491C7.31173 12.6597 7.30062 12.3595 7.46728 12.1571L7.50061 12.1203L11.4094 8L7.50061 3.87967C7.31173 3.69027 7.30062 3.39012 7.46728 3.18769L7.50061 3.15093C7.6895 2.96153 7.98883 2.95039 8.19071 3.1175L8.22736 3.15093L12.4996 7.63563Z" fill="#202124"/>
</svg>

<svg width="16" height="16" fill="none" xmlns="http://www.w3.org/2000/svg"><path fill-rule="evenodd" clip-rule="evenodd" d="M8.15 7.636c.188.189.2.49.033.692l-.034.036-4.272 4.485a.513.513 0 0 1-.726 0 .516.516 0 0 1-.034-.692l.034-.037L7.059 8 3.151 3.88a.516.516 0 0 1-.034-.692l.034-.037c.188-.19.488-.2.69-.033l.036.033L8.15 7.636Z" fill="#202124"/><path fill-rule="evenodd" clip-rule="evenodd" d="M12.5 7.636c.188.189.2.49.033.692l-.033.036-4.273 4.485a.513.513 0 0 1-.726 0 .516.516 0 0 1-.034-.692l.034-.037L11.409 8 7.501 3.88a.516.516 0 0 1-.034-.692l.034-.037c.188-.19.488-.2.69-.033l.036.033L12.5 7.636Z" fill="#202124"/></svg>
